src/assets/outline/Brush.svg

<svg width="24" height="24" viewBox="0 0 24 24"  xmlns="http://www.w3.org/2000/svg">
<path d="M10 16.75C9.59 16.75 9.25 16.41 9.25 16C9.25 14.33 9.25 12.25 13 12.25H17C19.25 12.25 19.25 11.95 19.25 10V8C19.25 6.05 19.25 5.75 17 5.75H16C15.59 5.75 15.25 5.41 15.25 5C15.25 4.59 15.59 4.25 16 4.25H17C20.5 4.25 20.75 5.67 20.75 8V10C20.75 12.33 20.5 13.75 17 13.75H13C10.75 13.75 10.75 14.36 10.75 16C10.75 16.41 10.41 16.75 10 16.75Z" />
<path d="M12 8.75H7.99996C7.67996 8.75 7.38996 8.54 7.28996 8.24C6.59996 6.15 6.59996 3.85 7.28996 1.77C7.38996 1.46 7.67996 1.25 7.99996 1.25H12C12.32 1.25 12.61 1.46 12.71 1.76C13.41 3.85 13.41 6.15 12.71 8.23C12.61 8.54 12.33 8.75 12 8.75ZM8.55996 7.25H11.45C11.84 5.78 11.84 4.22 11.45 2.75H8.55996C8.16996 4.22 8.16996 5.78 8.55996 7.25Z" />
<path d="M8 8.75H7C4.58 8.75 3.25 7.42 3.25 5C3.25 2.58 4.58 1.25 7 1.25H8C8.26 1.25 8.5 1.38 8.64 1.61C8.78 1.83 8.79 2.11 8.67 2.34C7.77 4.13 7.77 5.88 8.67 7.67C8.79 7.9 8.77 8.18 8.64 8.4C8.5 8.62 8.26 8.75 8 8.75ZM6.88 2.75C5.39 2.79 4.75 3.46 4.75 5C4.75 6.53 5.39 7.21 6.87 7.25C6.37 5.75 6.37 4.25 6.88 2.75Z" />
<path d="M13.0001 8.75H12.0001C11.7401 8.75 11.5001 8.62 11.3601 8.39C11.2201 8.17 11.2101 7.89 11.3301 7.66C12.2201 5.87 12.2201 4.12 11.3301 2.33C11.2101 2.1 11.2301 1.82 11.3601 1.6C11.5001 1.38 11.7401 1.25 12.0001 1.25H13.0001C15.4201 1.25 16.7501 2.58 16.7501 5C16.7501 7.42 15.4201 8.75 13.0001 8.75ZM13.1201 2.75C13.6201 4.25 13.6201 5.75 13.1201 7.25C14.6101 7.21 15.2401 6.54 15.2401 5C15.2501 3.46 14.6101 2.79 13.1201 2.75Z" />
<path d="M10.5 22.75H9.5C8.47 22.75 7.25 22.36 7.25 20.5V17.5C7.25 15.64 8.47 15.25 9.5 15.25H10.5C11.53 15.25 12.75 15.64 12.75 17.5V20.5C12.75 22.36 11.53 22.75 10.5 22.75ZM9.5 16.75C8.75 16.75 8.75 16.97 8.75 17.5V20.5C8.75 21.03 8.75 21.25 9.5 21.25H10.5C11.25 21.25 11.25 21.03 11.25 20.5V17.5C11.25 16.97 11.25 16.75 10.5 16.75H9.5Z" />
</svg>

<?xml version="1.0" encoding="UTF-8"?>
<svg width="24" height="24" viewBox="0 0 24 24" xmlns="http://www.w3.org/2000/svg">
 <path d="m10 16.75c-0.41 0-0.75-0.34-0.75-0.75 0-1.67 0-3.75 3.75-3.75h4c2.25 0 2.25-0.3 2.25-2.25v-2c0-1.95 0-2.25-2.25-2.25h-1c-0.41 0-0.75-0.34-0.75-0.75s0.34-0.75 0.75-0.75h1c3.5 0 3.75 1.42 3.75 3.75v2c0 2.33-0.25 3.75-3.75 3.75h-4c-2.25 0-2.25 0.61-2.25 2.25 0 0.41-0.34 0.75-0.75 0.75z"/>
 <path d="m12 8.75h-4c-0.32 0-0.61-0.21-0.71-0.51-0.69-2.09-0.69-4.39 0-6.47 0.1-0.31 0.39-0.52 0.71-0.52h4c0.32 0 0.61 0.21 0.71 0.51 0.7 2.09 0.7 4.39 0 6.47-0.1 0.31-0.38 0.52-0.71 0.52zm-3.44-1.5h2.89c0.39-1.47 0.39-3.03 0-4.5h-2.89c-0.39 1.47-0.39 3.03 0 4.5z"/>
 <path d="m8 8.75h-1c-2.42 0-3.75-1.33-3.75-3.75s1.33-3.75 3.75-3.75h1c0.26 0 0.5 0.13 0.64 0.36 0.14 0.22 0.15 0.5 0.03 0.73-0.9 1.79-0.9 3.54 0 5.33 0.12 0.23 0.1 0.51-0.03 0.73-0.14 0.22-0.38 0.35-0.64 0.35zm-1.12-6c-1.49 0.04-2.13 0.71-2.13 2.25 0 1.53 0.64 2.21 2.12 2.25-0.5-1.5-0.5-3 0.01-4.5z"/>
 <path d="m13 8.75h-1c-0.26 0-0.5-0.13-0.64-0.36-0.14-0.22-0.15-0.5-0.03-0.73 0.89-1.79 0.89-3.54 0-5.33-0.12-0.23-0.1-0.51 0.03-0.73 0.14-0.22 0.38-0.35 0.64-0.35h1c2.42 0 3.75 1.33 3.75 3.75s-1.33 3.75-3.75 3.75zm0.12-6c0.5 1.5 0.5 3 0 4.5 1.49-0.04 2.12-0.71 2.12-2.25 0.01-1.54-0.63-2.21-2.12-2.25z"/>
 <path d="m10.5 22.75h-1c-1.03 0-2.25-0.39-2.25-2.25v-3c0-1.86 1.22-2.25 2.25-2.25h1c1.03 0 2.25 0.39 2.25 2.25v3c0 1.86-1.22 2.25-2.25 2.25zm-1-6c-0.75 0-0.75 0.22-0.75 0.75v3c0 0.53 0 0.75 0.75 0.75h1c0.75 0 0.75-0.22 0.75-0.75v-3c0-0.53 0-0.75-0.75-0.75h-1z"/>
</svg>
